images_sukapura_svg/cmd/sc_pastespecial.svg

<svg viewBox="0 0 16 16" xmlns="http://www.w3.org/2000/svg">





     /&amp;amp;gt;
 <path d="m2.5 2.5c-.554 0-1 .446-1 1v11c0 .554.446 1 1 1h11c.554 0 1-.446 1-1v-11c0-.554-.460187-1.1245722-1-1h-1v1c0 .554-.446 1-1 1h-7c-.554 0-.9942233-.4460301-1-1v-1z" fill="#e2b96c" stroke="#bc974c"/><path d="m8 .5c-1.1045695 0-2 .8954305-2 2h-2.5v2h4.5 4.5v-2h-2.5c0-1.1045695-.8954305-2-2-2zm0 1c.5522847 0 1 .4477153 1 1s-.4477153 1-1 1-1-.4477153-1-1c.0002944-.03328.00225-.066524.00586-.099609.0511359-.510819.4807684-.8999361.99414-.900391z" fill="#797979" stroke="#757575"/><g transform="translate(-8 -1)"><path d="m4 3c-.554 0-1 .446-1 1v10c0 .554.446 1 1 1h4 4c.554 0 1-.446 1-1v-10c0-.554-.446-1-1-1h-4z" fill="#808080" transform="translate(8 1)"/><path d="m12 5v10h8v-10z" fill="#fdf9f3"/><path d="m16.5 6c-1.38125 0-2.5 1.0743907-2.5 2.4003906v.5996094h1v-.5996094c0-.6599999.812504-1.4066504 1.5-1.4042968.990199.00339 1.49904.5352625 1.486328 1.3691406-.005.3299617-.374219.6648596-.605469.8808596l-.77539.755859c-.45.438-.623578.996364-.611328 1.65625l.005859.341797h1c0-1.192826-.000732-.999219.855469-1.697266l.5625-.552734c.35625-.342.582031-.8216094.582031-1.3496094 0-1.3259999-1.11875-2.4003906-2.5-2.4003906zm-.5 7v1h1v-1z" fill="#e68497"/></g></svg>

<?xml version="1.0" encoding="UTF-8" standalone="no"?>
<svg
   xmlns:dc="http://purl.org/dc/elements/1.1/"
   xmlns:cc="http://creativecommons.org/ns#"
   xmlns:rdf="http://www.w3.org/1999/02/22-rdf-syntax-ns#"
   xmlns:svg="http://www.w3.org/2000/svg"
   xmlns="http://www.w3.org/2000/svg"
   xmlns:sodipodi="http://sodipodi.sourceforge.net/DTD/sodipodi-0.dtd"
   xmlns:inkscape="http://www.inkscape.org/namespaces/inkscape"
   viewBox="0 0 16 16"
   version="1.1"
   id="svg6"
   sodipodi:docname="sc_pastespecial.svg"
   inkscape:version="0.92.3 (unknown)"
   inkscape:export-filename="/home/rizmut/Dokumen/Rizmut/Github/libreoffice-style-colibrex/images_colibrex/cmd/sc_pastespecial.png"
   inkscape:export-xdpi="96"
   inkscape:export-ydpi="96"><metadata
   id="metadata12">
  <rdf:RDF>
    <cc:Work
       rdf:about="">
      <dc:format>image/svg+xml</dc:format>
      <dc:type
         rdf:resource="http://purl.org/dc/dcmitype/StillImage" />
      <dc:title />
    </cc:Work>
  </rdf:RDF>
</metadata>
<defs
   id="defs10" />
<sodipodi:namedview
   pagecolor="#ffffff"
   bordercolor="#666666"
   borderopacity="1"
   objecttolerance="10"
   gridtolerance="10"
   guidetolerance="10"
   inkscape:pageopacity="0"
   inkscape:pageshadow="2"
   inkscape:window-width="1366"
   inkscape:window-height="706"
   id="namedview8"
   showgrid="true"
   inkscape:snap-smooth-nodes="true"
   inkscape:zoom="14.75"
   inkscape:cx="2.9539201"
   inkscape:cy="8.6132738"
   inkscape:window-x="0"
   inkscape:window-y="0"
   inkscape:window-maximized="1"
   inkscape:current-layer="g10">
  <inkscape:grid
     type="xygrid"
     id="grid822"
     spacingx="0.5"
     spacingy="0.5"
     empspacing="2" />
</sodipodi:namedview>





     /&amp;gt;
 <path
   d="m 2.5,2.5 c -0.554,0 -1,0.446 -1,1 v 11 c 0,0.554 0.446,1 1,1 h 11 c 0.554,0 1,-0.446 1,-1 v -11 c 0,-0.554 -0.460187,-1.1245722 -1,-1 h -1 v 1 c 0,0.554 -0.446,1 -1,1 h -7 c -0.554,0 -0.9942233,-0.4460301 -1,-1 v -1 z"
   id="path2"
   style="fill:#e2b96c;stroke:#bc974c;stroke-opacity:1;fill-opacity:1"
   inkscape:connector-curvature="0"
   sodipodi:nodetypes="sssssssscsssscs" />
<path
   d="m 8,0.5 c -1.1045695,0 -2,0.8954305 -2,2 H 3.5 v 2 H 8 12.5 v -2 H 10 c 0,-1.1045695 -0.8954305,-2 -2,-2 z m 0,1 c 0.5522847,0 1,0.4477153 1,1 0,0.5522847 -0.4477153,1 -1,1 -0.5522847,0 -1,-0.4477153 -1,-1 2.944e-4,-0.03328 0.00225,-0.066524 0.00586,-0.099609 C 7.0569959,1.889572 7.4866284,1.5004549 8,1.5 Z"
   id="path4"
   style="fill:#797979;fill-opacity:1;stroke:#757575;stroke-opacity:1"
   inkscape:connector-curvature="0"
   sodipodi:nodetypes="scccccccscssccc" />
<g
   transform="translate(-8,-1)"
   id="g10">
  <path
     style="opacity:1;fill:#808080;fill-opacity:1;stroke:none;stroke-width:2;stroke-linecap:round;stroke-linejoin:round;stroke-miterlimit:4;stroke-dasharray:none;stroke-opacity:1"
     d="M 4 3 C 3.446 3 3 3.446 3 4 L 3 14 C 3 14.554 3.446 15 4 15 L 8 15 L 12 15 C 12.554 15 13 14.554 13 14 L 13 4 C 13 3.446 12.554 3 12 3 L 8 3 L 4 3 z "
     transform="translate(8,1)"
     id="rect816" />
  <path
     style="opacity:1;fill:#fdf9f3;fill-opacity:1;stroke:none;stroke-width:2;stroke-linecap:round;stroke-linejoin:round;stroke-miterlimit:4;stroke-dasharray:none;stroke-opacity:1"
     inkscape:connector-curvature="0"
     d="m 12,5 v 10 h 8 V 5 Z"
     id="rect818"
     stroke-miterlimit="4" />
  <path
     style="fill:#e68497;fill-opacity:1"
     inkscape:connector-curvature="0"
     d="M 16.5,6 C 15.11875,6 14,7.0743907 14,8.4003906 V 9 h 1 V 8.4003906 c 0,-0.6599999 0.812504,-1.4066504 1.5,-1.4042968 0.990199,0.00339 1.49904,0.5352625 1.486328,1.3691406 -0.005,0.3299617 -0.374219,0.6648596 -0.605469,0.8808596 l -0.77539,0.755859 c -0.45,0.438 -0.623578,0.996364 -0.611328,1.65625 L 16,12 h 1 c 0,-1.192826 -7.32e-4,-0.999219 0.855469,-1.697266 L 18.417969,9.75 C 18.774219,9.408 19,8.9283906 19,8.4003906 19,7.0743907 17.88125,6 16.5,6 Z M 16,13 v 1 h 1 v -1 z"
     id="path4-3"
     sodipodi:nodetypes="ssccssccccccccssccccc" />
</g>
</svg>
